icons/dismiss-filled.svg

<svg width="16" height="16" viewBox="0 0 16 16" fill="#f4f4f7" fill-opacity="context-fill-opacity"
    preserveAspectRatio="xMidYMid meet" xmlns="http://www.w3.org/2000/svg">
    <path
        d="M2.39705 2.55379L2.46967 2.46967C2.73594 2.2034 3.1526 2.1792 3.44621 2.39705L3.53033 2.46967L8 6.939L12.4697 2.46967C12.7626 2.17678 13.2374 2.17678 13.5303 2.46967C13.8232 2.76256 13.8232 3.23744 13.5303 3.53033L9.061 8L13.5303 12.4697C13.7966 12.7359 13.8208 13.1526 13.6029 13.4462L13.5303 13.5303C13.2641 13.7966 12.8474 13.8208 12.5538 13.6029L12.4697 13.5303L8 9.061L3.53033 13.5303C3.23744 13.8232 2.76256 13.8232 2.46967 13.5303C2.17678 13.2374 2.17678 12.7626 2.46967 12.4697L6.939 8L2.46967 3.53033C2.2034 3.26406 2.1792 2.8474 2.39705 2.55379L2.46967 2.46967L2.39705 2.55379Z" />
</svg>

<svg xmlns="http://www.w3.org/2000/svg" width="32" height="16" fill="#f4f4f7" fill-opacity="context-fill-opacity">
    <path
        d="m2.397 2.554.073-.084a.75.75 0 0 1 .976-.073l.084.073L8 6.939l4.47-4.47a.75.75 0 1 1 1.06 1.061L9.061 8l4.47 4.47a.75.75 0 0 1 .072.976l-.073.084a.75.75 0 0 1-.976.073l-.084-.073L8 9.061l-4.47 4.47a.75.75 0 0 1-1.06-1.061L6.939 8l-4.47-4.47a.75.75 0 0 1-.072-.976l.073-.084-.073.084Z" />
</svg>
